X:27
T:Merry Lads of Huntingtower. Ru1.107,The
%%VWML:RutherfordVol1-2248-p54-0p54
Z:Transcription by Village Music Project, Steve Mansfield July 2015
F:http://www.village-music-project.org.uk/
F:http://www.vwml.org/record/RutherfordVol1/2248/p54
L:1/8
Q:1/4=100
K:G
c|"tr"B2AG dBec|dBgd A>GFA|"tr"B2AG dBec|BGAB G/G/GG2:|
|:e|gdgb eceg|BGcB "tr"A>GFe|gdgb eceg|dBcA G/G/GG3:|
W:Foot it & cast off 2d. Cu. .| Foot it & cast up again :|
W:Cross over 2 cu. Lead up to the Top foot it & cast
W:off foot it Corners & turn :|| Lead out sides &
W:turn your Partner
T:Sigr. Fiddlidee. Ru1.108
B:Rutherford's Country Dances Vol 1, 1756
Z:village music project, Ruairidh Greig July 2015
M:C|
L:1/8
Q:1/4=100
K:G
GBdB ee2g|dBGB A/A/AA2|GBdB e2ef|ga"tr"ge dB3:|
|:gage dedB|gage agab|gaeg dega|begd B/B/BB3:|
W:The first Couple cross over and turn .| Cross up
W:again & turn :| foot it & Hands across with the
W:2d. Cu. the same back again :||: foot it to the
W:2d. Wo. & turn .|| The Wo. does the same with
W:the 2d. Man :|| Cross over & half figure right
W:Hand & Left :|
|:
